X: 182
T: Zizhao de duixiang xinzhong ai
L: 1/16
M: 2/4
K: C
d2> e2 d2 c2 [I:setbarnb 1]| 
d2A4A2 | 
c2 B A G A F G | 
A8 | 
A2> d2 c2 A2 | 
c2 E2 G2 A2 | 
E E2 DC4 | 
G G2 A E G E C | 
D8 |]

@@@ Tune index: 9056
